X: 1
T:N°8 (Menuet)
N:page 6
S:Manuscrit Wandembrile (1778), Archives de l'Etat à Namur
Z:ABC transcription Olivier VIENNE troubadourwallon@gmail.com
K:Gmaj
M:3/4
L:1/8
[G,DBg]2 d2 d2|d4 c2|BA G2 F2|G4 B2|AG A2 c2|BA B2 d2|efgdcB|A6:|
|:a4 ce|eddc c2|a4 Bd|dccB B2|gfedcB|edcBAG|AcBAGF|G6:|]





